X: 19535
T: James Betagh
R: reel
M: 4/4
K: Dmajor
D2 A2 GFEF|DEFG A2 c2|F2 EF D2 d2|cd e2 c2A2|
agfe fgaf|g2 g2 g2 fg|agaf gfge|a2 d2 c2 AG|
FEFD A2 A2|G2 G2 G2 AB|c2 c2 cdcB|cdcB c2 Bc|
d2 d2 dedc|dedc d2 de|f2 AG F2 ef|
g2 ed c2a2|gfed cAcG|A2 d2 d4||
A2 G2 F2 E2|D3E FEFD|EDEF GFGE|AGFE F2 E2|
D2 Fd d2 Fd|cdec efge|A2 AG F2 EF|GFED c2 A2|
D2 DE F2 G2|AGAB cBcA|d3e fede|c2 A2 A4|
c3e c3e|d2 c2 A2 GF|EFED cAcG|A2D2 D4||
"Jid"[M:6/8]E "ViveGB"|F2D d2D|E2c GAc|D3 A3|AcA F3|
cec A2G|FEF D3|d2e f2e|c3 A2G|
ABc cdc|d2e f2e|d2a e2g|fed c3|
dAG FED|c2A F2D|c2A E2G|FED D2||
F/G/|A3 AFA|AFA ABc|d3 dAd|dAd fed|
c3 cfc|cfc d2c|A2G FED|c3 A3|
AcA FEF|cec GFG|D3 AGA|G2F E2c|
D3 d3|E3 c3|d2A GFE|EAc d2||

